svg/emoji_u2640.svg

<svg enable-background="new 0 0 128 128" viewBox="0 0 128 128" xmlns="http://www.w3.org/2000/svg"><linearGradient id="a" x1="64" x2="64" y1="3.5" y2="124.57" gradientUnits="userSpaceOnUse"><stop stop-color="#C71FFF" offset="0"/><stop stop-color="#BE1BF2" offset=".2936"/><stop stop-color="#A710D0" offset=".8358"/><stop stop-color="#9F0CC4" offset="1"/></linearGradient><path d="M106,46c0-23.74-19.7-42.88-43.64-41.97C40.71,4.86,23.02,22.42,22.04,44.06 C21.09,65.38,36.02,83.38,56,87.23V92H44c-2.21,0-4,1.79-4,4v8c0,2.21,1.79,4,4,4h12v12c0,2.21,1.79,4,4,4h8c2.21,0,4-1.79,4-4v-12 h12c2.21,0,4-1.79,4-4v-8c0-2.21-1.79-4-4-4H72v-4.77C91.37,83.49,106,66.46,106,46z M38.8,46c0-13.9,11.3-25.2,25.2-25.2 S89.2,32.1,89.2,46S77.9,71.2,64,71.2S38.8,59.9,38.8,46z" fill="url(#a)"/><g opacity=".2"><path d="m64 7c21.5 0 39 17.5 39 39 0 18.65-13.28 34.76-31.57 38.28-1.41 0.28-2.43 1.51-2.43 2.95v4.77c0 1.66 1.34 3 3 3h12c0.55 0 1 0.45 1 1v8c0 0.55-0.45 1-1 1h-12c-1.66 0-3 1.34-3 3v12c0 0.55-0.45 1-1 1h-8c-0.55 0-1-0.45-1-1v-12c0-1.66-1.34-3-3-3h-12c-0.55 0-1-0.45-1-1v-8c0-0.55 0.45-1 1-1h12c1.66 0 3-1.34 3-3v-4.77c0-1.44-1.02-2.67-2.43-2.95-9.07-1.75-17.25-6.71-23.05-13.96-5.89-7.37-8.9-16.65-8.47-26.12 0.9-20.08 17.34-36.4 37.43-37.17 0.51-0.02 1.01-0.03 1.52-0.03m0 67.2c15.55 0 28.2-12.65 28.2-28.2s-12.65-28.2-28.2-28.2-28.2 12.65-28.2 28.2 12.65 28.2 28.2 28.2m0-70.2c-0.55 0-1.09 0.01-1.64 0.03-21.65 0.83-39.34 18.39-40.32 40.03-0.95 21.32 13.98 39.32 33.96 43.17v4.77h-12c-2.21 0-4 1.79-4 4v8c0 2.21 1.79 4 4 4h12v12c0 2.21 1.79 4 4 4h8c2.21 0 4-1.79 4-4v-12h12c2.21 0 4-1.79 4-4v-8c0-2.21-1.79-4-4-4h-12v-4.77c19.37-3.74 34-20.77 34-41.23 0-23.19-18.81-42-42-42zm0 67.2c-13.9 0-25.2-11.3-25.2-25.2s11.3-25.2 25.2-25.2 25.2 11.3 25.2 25.2-11.3 25.2-25.2 25.2z" fill="#424242"/></g></svg>

<svg width="128" height="128" style="enable-background:new 0 0 128 128;" xmlns="http://www.w3.org/2000/svg" xmlns:xlink="http://www.w3.org/1999/xlink">
  <g>
    <linearGradient id="SVGID_1_" gradientUnits="userSpaceOnUse" x1="64" x2="64" y1="3.5" y2="124.5698">
      <stop offset="0" style="stop-color:#C71FFF"/>
      <stop offset="0.2936" style="stop-color:#BE1BF2"/>
      <stop offset="0.8358" style="stop-color:#A710D0"/>
      <stop offset="1" style="stop-color:#9F0CC4"/>
    </linearGradient>
    <path d="M106,46c0-23.74-19.7-42.88-43.64-41.97C40.71,4.86,23.02,22.42,22.04,44.06 C21.09,65.38,36.02,83.38,56,87.23V92H44c-2.21,0-4,1.79-4,4v8c0,2.21,1.79,4,4,4h12v12c0,2.21,1.79,4,4,4h8c2.21,0,4-1.79,4-4v-12 h12c2.21,0,4-1.79,4-4v-8c0-2.21-1.79-4-4-4H72v-4.77C91.37,83.49,106,66.46,106,46z M38.8,46c0-13.9,11.3-25.2,25.2-25.2 S89.2,32.1,89.2,46S77.9,71.2,64,71.2S38.8,59.9,38.8,46z" style="fill:url(#SVGID_1_);"/>
    <g style="opacity:0.2;">
      <path d="M64,7c21.5,0,39,17.5,39,39c0,18.65-13.28,34.76-31.57,38.28C70.02,84.56,69,85.79,69,87.23V92 c0,1.66,1.34,3,3,3h12c0.55,0,1,0.45,1,1v8c0,0.55-0.45,1-1,1H72c-1.66,0-3,1.34-3,3v12c0,0.55-0.45,1-1,1h-8c-0.55,0-1-0.45-1-1 v-12c0-1.66-1.34-3-3-3H44c-0.55,0-1-0.45-1-1v-8c0-0.55,0.45-1,1-1h12c1.66,0,3-1.34,3-3v-4.77c0-1.44-1.02-2.67-2.43-2.95 c-9.07-1.75-17.25-6.71-23.05-13.96c-5.89-7.37-8.9-16.65-8.47-26.12c0.9-20.08,17.34-36.4,37.43-37.17C62.99,7.01,63.49,7,64,7 M64,74.2c15.55,0,28.2-12.65,28.2-28.2c0-15.55-12.65-28.2-28.2-28.2c-15.55,0-28.2,12.65-28.2,28.2 C35.8,61.55,48.45,74.2,64,74.2 M64,4c-0.55,0-1.09,0.01-1.64,0.03C40.71,4.86,23.02,22.42,22.04,44.06 C21.09,65.38,36.02,83.38,56,87.23V92H44c-2.21,0-4,1.79-4,4v8c0,2.21,1.79,4,4,4h12v12c0,2.21,1.79,4,4,4h8c2.21,0,4-1.79,4-4 v-12h12c2.21,0,4-1.79,4-4v-8c0-2.21-1.79-4-4-4H72v-4.77c19.37-3.74,34-20.77,34-41.23C106,22.81,87.19,4,64,4L64,4z M64,71.2 c-13.9,0-25.2-11.3-25.2-25.2c0-13.9,11.3-25.2,25.2-25.2S89.2,32.1,89.2,46C89.2,59.9,77.9,71.2,64,71.2L64,71.2z" style="fill:#424242;"/>
    </g>
  </g>
</svg>
